dist/svg/u1F9BA.svg

<?xml version="1.0" encoding="UTF-8"?><svg id="a" xmlns="http://www.w3.org/2000/svg" viewBox="0 0 40 40"><g><path d="M4.274,36.5h15.726V15.355L13.553,3.751l-6.449,1.44c-.505,.113-.864,.561-.864,1.078v10.941c0,1.61-1.305,2.915-2.915,2.915h0v15.425c0,.524,.425,.949,.949,.949Z" fill="#f75216"/><path d="M35.726,36.5h-15.726V15.355L26.447,3.751l6.449,1.44c.505,.113,.864,.561,.864,1.078v10.941c0,1.61,1.305,2.915,2.915,2.915h0v15.425c0,.524-.425,.949-.949,.949Z" fill="#f75216"/><path d="M31.239,25.706V4.818l-3.791-.844V25.706c0,.448-.363,.811-.811,.811H13.362c-.448,0-.811-.363-.811-.811V3.975l-3.791,.847V25.706c0,.448-.363,.811-.811,.811H3.325v3.735H36.675v-3.735h-4.625c-.448,0-.811-.363-.811-.811Z" fill="#d0d6de"/><polygon points="20 17.509 12.552 3.975 14.613 3.506 20 13.202 25.391 3.5 27.448 3.975 20 17.509" fill="#333d4b"/><rect x="18.955" y="15.355" width="2.091" height="21.144" fill="#333d4b"/></g><rect width="40" height="40" fill="none"/></svg>

<svg id="Layer_1" data-name="Layer 1" xmlns="http://www.w3.org/2000/svg" viewBox="0 0 40 40"><defs><style>.cls-1{fill:#f75216;}.cls-2{fill:#d0d6de;}.cls-3{fill:#333d4b;}.cls-4{fill:none;}</style></defs><path class="cls-1" d="M4.274,36.5H20V15.355l-6.447-11.6L7.1,5.191A1.1,1.1,0,0,0,6.24,6.269V17.21a2.916,2.916,0,0,1-2.915,2.916h0V35.551A.949.949,0,0,0,4.274,36.5Z"/><path class="cls-1" d="M35.726,36.5H20V15.355l6.447-11.6L32.9,5.191a1.1,1.1,0,0,1,.864,1.078V17.21a2.916,2.916,0,0,0,2.915,2.916h0V35.551A.949.949,0,0,1,35.726,36.5Z"/><path class="cls-2" d="M31.239,25.706V4.818l-3.791-.843V25.706a.811.811,0,0,1-.81.811H13.362a.811.811,0,0,1-.81-.811V3.975l-3.791.846V25.706a.811.811,0,0,1-.811.811H3.325v3.734h33.35V26.517H32.05A.811.811,0,0,1,31.239,25.706Z"/><polygon class="cls-3" points="20 17.509 12.552 3.975 14.613 3.506 20 13.202 25.391 3.5 27.448 3.975 20 17.509"/><rect class="cls-3" x="18.955" y="15.355" width="2.091" height="21.144"/><rect class="cls-4" width="40" height="40"/></svg>
